SF_Symbols/switch.2.svg

<?xml version="1.0" encoding="UTF-8"?>
<svg xmlns="http://www.w3.org/2000/svg" xmlns:xlink="http://www.w3.org/1999/xlink" width="24" height="24" viewBox="0 0 24 24" version="1.1">
<g id="surface1">
<path style=" stroke:none;fill-rule:nonzero;fill:rgb(100%,100%,100%);fill-opacity:1;" d="M 5.039062 23.589844 L 18.960938 23.589844 C 19.882812 23.589844 20.722656 23.386719 21.480469 22.980469 C 22.238281 22.582031 22.839844 22.019531 23.285156 21.292969 C 23.738281 20.574219 23.964844 19.734375 23.964844 18.773438 C 23.964844 17.8125 23.738281 16.972656 23.285156 16.253906 C 22.839844 15.527344 22.238281 14.964844 21.480469 14.566406 C 20.722656 14.160156 19.882812 13.957031 18.960938 13.957031 L 5.039062 13.957031 C 4.109375 13.957031 3.265625 14.160156 2.507812 14.566406 C 1.75 14.964844 1.144531 15.527344 0.691406 16.253906 C 0.246094 16.972656 0.0234375 17.8125 0.0234375 18.773438 C 0.0234375 19.734375 0.246094 20.574219 0.691406 21.292969 C 1.144531 22.019531 1.75 22.582031 2.507812 22.980469 C 3.265625 23.386719 4.109375 23.589844 5.039062 23.589844 Z M 19.253906 21.820312 C 18.691406 21.8125 18.179688 21.671875 17.71875 21.398438 C 17.265625 21.125 16.902344 20.757812 16.628906 20.296875 C 16.355469 19.835938 16.21875 19.324219 16.21875 18.761719 C 16.21875 18.207031 16.355469 17.699219 16.628906 17.238281 C 16.902344 16.777344 17.265625 16.410156 17.71875 16.136719 C 18.179688 15.863281 18.691406 15.726562 19.253906 15.726562 C 19.816406 15.726562 20.328125 15.863281 20.789062 16.136719 C 21.257812 16.410156 21.628906 16.777344 21.902344 17.238281 C 22.175781 17.691406 22.308594 18.195312 22.300781 18.75 C 22.300781 19.3125 22.164062 19.828125 21.890625 20.296875 C 21.617188 20.765625 21.25 21.136719 20.789062 21.410156 C 20.328125 21.683594 19.816406 21.820312 19.253906 21.820312 Z M 5.519531 12.152344 L 18.480469 12.152344 C 19.488281 12.152344 20.40625 11.929688 21.234375 11.484375 C 22.070312 11.039062 22.734375 10.414062 23.226562 9.609375 C 23.71875 8.804688 23.964844 7.871094 23.964844 6.808594 C 23.964844 5.746094 23.71875 4.8125 23.226562 4.007812 C 22.734375 3.203125 22.070312 2.578125 21.234375 2.132812 C 20.40625 1.6875 19.488281 1.464844 18.480469 1.464844 L 5.519531 1.464844 C 4.511719 1.464844 3.589844 1.6875 2.753906 2.132812 C 1.925781 2.578125 1.261719 3.203125 0.761719 4.007812 C 0.269531 4.8125 0.0234375 5.746094 0.0234375 6.808594 C 0.0234375 7.871094 0.269531 8.804688 0.761719 9.609375 C 1.261719 10.414062 1.925781 11.039062 2.753906 11.484375 C 3.589844 11.929688 4.511719 12.152344 5.519531 12.152344 Z M 5.519531 10.382812 C 4.863281 10.382812 4.25 10.234375 3.679688 9.9375 C 3.117188 9.632812 2.660156 9.214844 2.308594 8.683594 C 1.964844 8.144531 1.792969 7.519531 1.792969 6.808594 C 1.792969 6.097656 1.964844 5.476562 2.308594 4.945312 C 2.660156 4.40625 3.117188 3.988281 3.679688 3.691406 C 4.25 3.386719 4.863281 3.234375 5.519531 3.234375 L 18.480469 3.234375 C 19.128906 3.234375 19.734375 3.386719 20.296875 3.691406 C 20.867188 3.988281 21.324219 4.40625 21.667969 4.945312 C 22.019531 5.476562 22.195312 6.097656 22.195312 6.808594 C 22.195312 7.519531 22.019531 8.144531 21.667969 8.683594 C 21.324219 9.214844 20.867188 9.632812 20.296875 9.9375 C 19.734375 10.234375 19.128906 10.382812 18.480469 10.382812 Z M 5.519531 9.585938 C 6.035156 9.59375 6.5 9.472656 6.914062 9.222656 C 7.335938 8.964844 7.671875 8.625 7.921875 8.203125 C 8.179688 7.773438 8.308594 7.300781 8.308594 6.785156 C 8.316406 6.269531 8.195312 5.804688 7.945312 5.390625 C 7.695312 4.96875 7.355469 4.636719 6.925781 4.394531 C 6.503906 4.144531 6.035156 4.019531 5.519531 4.019531 C 5.003906 4.019531 4.535156 4.144531 4.113281 4.394531 C 3.691406 4.644531 3.355469 4.980469 3.105469 5.402344 C 2.863281 5.824219 2.742188 6.289062 2.742188 6.796875 C 2.742188 7.3125 2.863281 7.78125 3.105469 8.203125 C 3.355469 8.625 3.691406 8.960938 4.113281 9.210938 C 4.535156 9.460938 5.003906 9.585938 5.519531 9.585938 Z M 5.519531 9.585938 "/>
</g>
</svg>

<svg xmlns="http://www.w3.org/2000/svg" width="24" height="24"><path style="stroke:none;fill-rule:nonzero;fill:#fff;fill-opacity:1" d="M5.04 23.59h13.92c.923 0 1.763-.203 2.52-.61a4.574 4.574 0 0 0 1.805-1.687c.453-.719.68-1.559.68-2.52 0-.96-.227-1.8-.68-2.52a4.574 4.574 0 0 0-1.805-1.687c-.757-.406-1.597-.609-2.52-.609H5.04c-.93 0-1.774.203-2.532.61A4.66 4.66 0 0 0 .69 16.253c-.445.719-.668 1.558-.668 2.52 0 .96.223 1.8.668 2.519a4.689 4.689 0 0 0 1.817 1.687c.758.407 1.601.61 2.531.61Zm14.214-1.77a3.075 3.075 0 0 1-1.535-.422 3.131 3.131 0 0 1-1.09-1.101 2.948 2.948 0 0 1-.41-1.535c0-.555.136-1.063.41-1.524.273-.46.637-.828 1.09-1.101.46-.274.972-.41 1.535-.41.562 0 1.074.136 1.535.41.469.273.84.64 1.113 1.101.274.453.407.957.399 1.512a3.072 3.072 0 0 1-1.512 2.66c-.46.274-.973.41-1.535.41ZM5.52 12.152h12.96c1.008 0 1.926-.222 2.754-.668a5.137 5.137 0 0 0 1.993-1.875c.492-.804.738-1.738.738-2.8 0-1.063-.246-1.997-.738-2.801a5.137 5.137 0 0 0-1.993-1.875c-.828-.446-1.746-.668-2.754-.668H5.52c-1.008 0-1.93.222-2.766.668A5.222 5.222 0 0 0 .762 4.008c-.492.804-.739 1.738-.739 2.8 0 1.063.247 1.997.739 2.801.5.805 1.164 1.43 1.992 1.875.836.446 1.758.668 2.766.668Zm0-1.77c-.657 0-1.27-.148-1.84-.444a3.773 3.773 0 0 1-1.371-1.254c-.344-.54-.516-1.164-.516-1.875 0-.711.172-1.332.516-1.864.351-.539.808-.957 1.37-1.254.567-.304 1.2-.46 1.84-.457H18.48c.649 0 1.254.153 1.817.457.57.297 1.027.715 1.371 1.254.352.532.527 1.153.527 1.864 0 .71-.175 1.336-.527 1.875-.344.53-.8.949-1.371 1.254a3.821 3.821 0 0 1-1.817.445Zm0-.796c.515.008.98-.113 1.394-.363.414-.25.762-.602 1.008-1.02.258-.43.387-.902.387-1.418a2.58 2.58 0 0 0-.364-1.394 2.712 2.712 0 0 0-1.02-.996A2.73 2.73 0 0 0 5.52 4.02c-.516 0-.985.125-1.407.375-.422.25-.758.585-1.008 1.007a2.774 2.774 0 0 0-.363 1.395c0 .516.121.984.363 1.406.25.422.586.758 1.008 1.008.422.25.89.375 1.407.375Zm0 0"/></svg>
